X:1
T:Title
%%score { ( 1 3 5 ) | ( 2 4 ) }
L:1/8
M:4/4
K:Bb
V:1 treble nm="Grand Piano"
V:3 treble 
V:5 treble 
V:2 bass 
V:4 bass 
V:1
 z4 z2 z[Q:1/4=106] [DF] | [DF]3 [_D=E] [=DF]2 [D^F]2 | [EA]3 [EG] [EG]2 [EB]2 | %3
 [EB]2 [A,EA]2 [B,EG]2 [CEF]2 | [DF]6 [_A,DF]2 | [A,EF]3 [A,EG] [A,EF]2 [A,CF]2 | %6
 [B,DF]2 [B,DG]2 [A,DA]2 [DB]2 | [=EG]2 [EA]2 [EB]2 [Ec]2 | [Ec]6 [EF]2 | %9
 z2[K:bass] z[K:treble] c B2 B2 | [Ee]3 [Ed] c2 B2 | B2 A2 G2 F2 | F6[K:bass][K:treble] z2 | %13
 [DB]3 [A,DA] [B,DG]2 [B,DG]2 | B3 A G2 ^F2 | G2 A2 [GB]2 [Gc]2 |[M:7/8] [^Fd]- [Fd]3 [=Fe]3 | %17
[M:1/4] F2 |[M:4/4] [Fd]4 [Fd]2 D2- | [DF-d-]2 [Fd]2 [=B,Fd]2 [DFG]2 | [C=EG]2 [Ed]2 [Ec]2 [EG]2 | %21
 c6 z2 | z2 E2 [DB]2 [Fd]2 | [_Af]2 [Ge]2 [Gd]2 [Gc]2 | [FB]2 [Fd]2 d2- [A,_Ed]2 | %25
[M:9/8] [DB]8- [DB] |] %26
V:2
 z4 z2 z [B,,F,] | [B,,F,]3 [B,,G,] [B,,F,]2 [B,,^F,]2 | [B,,F,]3 [B,,G,] [B,,G,]2 [B,,G,]2 | %3
 [F,,G,]2 F,,2 G,,2 A,,2 | z4 F,2 =B,,2 | C,3 C, E,2 E,2 | D,2 D,2 G,,2 [G,,G,]2 | %7
 [C,B,]2 [C,B,]2 [C,G,]2 [C,G,]2 | [F,,F,A,]6 [F,A,]2 | F,3 [^F,D] [E,G,E]2 [E,G,E]2 | %10
 [C,G,]3 [C,_A,] [F,=A,E]2 [F,B,E]2 | [F,CE]2 [F,CE]2 [F,A,E]2 [F,A,E]2 | [B,D]6 [B,,F,]2 | %13
 [G,,G,]3 G,, G,,2 G,,2 | [E,G,E]3 [E,A,E] [E,B,E]2 [E,CE]2 | [E,B,E]2 [E,A,E]2 [E,G,]2 [E,A,]2 | %16
[M:7/8] A,- A,3- [C,A,]3 |[M:1/4] F,2 |[M:4/4] z2 F,2 [B,,B,]2 B,,2 | z2 G,2 G,,2 G,,2 | %20
 D,2 [C,B,]2 [C,G,]2 [C,B,]2 | [A,E]6 [A,C]2 | [D,B,D]2 [C,A,]2 [B,,B,]2 [B,,B,]2 | %23
 [=B,,D]2 [C,C]2 [D,=B,]2 [E,C]2 | [F,D]2 [F,B,]2 [F,,G,]2 z[K:treble] c | %25
[M:9/8][K:bass] [B,,F,]8- [B,,F,] |] %26
V:3
 x8 | x8 | x8 | x8 | B,4 z4 | x8 | x8 | x8 | x8 | [Dd]4[K:bass][K:treble] z4 | x8 | x8 | %12
 z2[K:bass] F,2 D,2[K:treble] [DF]2 | x8 | x8 | x8 |[M:7/8] x7 |[M:1/4] x2 |[M:4/4] z4 z2 F2 | x8 | %20
 x8 | z4 z2 F2 | F4 z4 | x8 | z4 =E2 z2 |[M:9/8] x9 |] %26
V:4
 x8 | x8 | x8 | x8 | B,,6 z2 | x8 | x8 | x8 | x8 | B,,2 z2 z4 | x8 | x8 | x8 | x8 | x8 | x8 | %16
[M:7/8] D,- D,3 z z2 |[M:1/4] x2 |[M:4/4] B,,4 z4 | G,,4 z4 | x8 | F,4 z4 | x8 | x8 | %24
 z4 z2 F,,2[K:treble] |[M:9/8][K:bass] x9 |] %26
V:5
 x8 | x8 | x8 | x8 | x8 | x8 | x8 | x8 | x8 | z2[K:bass] B,,2[K:treble] z4 | x8 | x8 | %12
 x2[K:bass] x4[K:treble] x2 | x8 | x8 | x8 |[M:7/8] x7 |[M:1/4] x2 |[M:4/4] x8 | x8 | x8 | z4 E,4 | %22
 x8 | x8 | x8 |[M:9/8] x9 |] %26

